src/fileIcons/FileIconTiff/FileIconTiff_size_s.svg

<svg viewBox="0 0 21 28" xmlns="http://www.w3.org/2000/svg">
  <path
    d="M19.6 0H1.4C0.626801 0 0 0.626801 0 1.4V26.6C0 27.3732 0.626801 28 1.4 28H19.6C20.3732 28 21 27.3732 21 26.6V1.4C21 0.626801 20.3732 0 19.6 0Z"
  />
  <path
    opacity="0.6"
    fill-rule="evenodd"
    clip-rule="evenodd"
    d="M6 14C5.85778 14 5.5 14 5.5 14C5.5 14 5.5 14.3661 5.5 14.5V20.6667L7.5 19L13 24H15.5V14.5C15.5 14.3578 15.5 14 15.5 14C15.5 14 15.1339 14 15 14H6ZM5.5 23.5V22.3333L7.60819 20.5224L11.5 24H6C5.84938 24 5.5 24 5.5 24C5.5 24 5.5 23.6255 5.5 23.5ZM4.5 14.5V22V23.5V24C4.5 24.2762 4.5 25 4.5 25C4.5 25 5.2239 25 5.5 25H6H15H15.5C15.7464 25 16.5 25 16.5 25C16.5 25 16.5 24.3058 16.5 24V23.5V23V14.5C16.5 14.1158 16.5 13 16.5 13C16.5 13 15.4443 13 15 13H6C5.55575 13 4.5 13 4.5 13C4.5 13 4.5 14.1158 4.5 14.5ZM10.5 17.5C10.5 16.6716 11.1716 16 12 16C12.8284 16 13.5 16.6716 13.5 17.5C13.5 18.3284 12.8284 19 12 19C11.1716 19 10.5 18.3284 10.5 17.5ZM12 15C10.6193 15 9.5 16.1193 9.5 17.5C9.5 18.8807 10.6193 20 12 20C13.3807 20 14.5 18.8807 14.5 17.5C14.5 16.1193 13.3807 15 12 15Z"
    fill="#fff"
  />
  <path d="M9 3V2H8V3H9Z" fill="#fff" />
  <path d="M7 4V5H8V8H7V9H10V8H9V4H7Z" fill="#fff" />
  <path
    d="M13.09 3.09C13.1567 3.03 13.2433 3 13.35 3L14.5 3V2H13.04C12.7333 2 12.4833 2.1 12.29 2.3C12.0967 2.49333 12 2.76 12 3.1V4H11V5H12V8H11V9H14V8H13V5H14V4H13V3.3C13 3.21333 13.03 3.14333 13.09 3.09Z"
    fill="#fff"
  />
  <path
    d="M17.09 3.09C17.1567 3.03 17.2433 3 17.35 3L18.5 3V2H17.04C16.7333 2 16.4833 2.1 16.29 2.3C16.0967 2.49333 16 2.76 16 3.1V4H15V5H16V8H15V9H18V8H17V5H18V4H17V3.3C17 3.21333 17.03 3.14333 17.09 3.09Z"
    fill="#fff"
  />
  <path
    d="M5.05 8.99961C4.71 8.99961 4.45 8.88961 4.27 8.66961C4.09 8.44961 4 8.15961 4 7.79961V4.9998H3V3.99961H4V3H5V3.99961H6V4.9998H5V7.6C5 7.74667 5.03667 7.85 5.11 7.91C5.18333 7.97 5.29667 8 5.45 8L6 8.00039V9L5.05 8.99961Z"
    fill="#fff"
  />
</svg>

<svg viewBox="0 0 21 28" xmlns="http://www.w3.org/2000/svg">
  <path
    d="M19.6 0H1.4A1.4 1.4 0 000 1.4v25.2A1.4 1.4 0 001.4 28h18.2a1.4 1.4 0 001.4-1.4V1.4A1.4 1.4 0 0019.6 0z"
  />
  <path
    fill="#fff"
    fill-rule="evenodd"
    d="M6.5 14a.5.5 0 00-.5.5v6.167L8 19l4.5 4h2a.5.5 0 00.5-.5v-8a.5.5 0 00-.5-.5h-8zM6 22.5v-.167l2.108-1.81L11 23H6.5a.5.5 0 01-.5-.5zm-1-8V23a1 1 0 001 1h9a1 1 0 001-1v-8.5a1.5 1.5 0 00-1.5-1.5h-8A1.5 1.5 0 005 14.5zm5 3a1.5 1.5 0 113 0 1.5 1.5 0 01-3 0zm1.5-2.5a2.5 2.5 0 100 5 2.5 2.5 0 000-5z"
    clip-rule="evenodd"
    opacity=".6"
  />
  <path
    fill="#fff"
    d="M9 3V2H8v1h1zM7 4v1h1v3H7v1h3V8H9V4H7zM13.09 3.09a.374.374 0 01.26-.09h1.15V2h-1.46c-.307 0-.557.1-.75.3-.193.193-.29.46-.29.8V4h-1v1h1v3h-1v1h3V8h-1V5h1V4h-1v-.7c0-.087.03-.157.09-.21zM17.09 3.09a.374.374 0 01.26-.09h1.15V2h-1.46c-.307 0-.557.1-.75.3-.193.193-.29.46-.29.8V4h-1v1h1v3h-1v1h3V8h-1V5h1V4h-1v-.7c0-.087.03-.157.09-.21zM5.05 9c-.34 0-.6-.11-.78-.33C4.09 8.45 4 8.16 4 7.8V5H3V4h1V3h1v1h1v1H5v2.6c0 .147.037.25.11.31.073.06.187.09.34.09H6v1h-.95z"
  />
</svg>
